svg/transport/sleigh_fill.svg

<?xml version="1.0" encoding="UTF-8"?>
<svg width="24px" height="24px" viewBox="0 0 24 24" version="1.1" xmlns="http://www.w3.org/2000/svg" xmlns:xlink="http://www.w3.org/1999/xlink">
    <title>sleigh_fill</title>
    <g id="Icon" stroke="none" stroke-width="1" fill="none" fill-rule="evenodd">
        <g id="Transport" transform="translate(0.000000, -336.000000)">
            <g id="sleigh_fill" transform="translate(0.000000, 336.000000)">
                <path d="M24,0 L24,24 L0,24 L0,0 L24,0 Z M12.5935,23.2578 L12.5819,23.2595 L12.5109,23.295 L12.4919,23.2987 L12.4767,23.295 L12.4057,23.2595 C12.3958,23.2564 12.387,23.259 12.3821,23.2649 L12.378,23.2758 L12.3609,23.7031 L12.3659,23.7235 L12.3769,23.7357 L12.4805,23.8097 L12.4953,23.8136 L12.5071,23.8097 L12.6107,23.7357 L12.6233,23.7197 L12.6267,23.7031 L12.6096,23.2758 C12.6076,23.2657 12.601,23.2593 12.5935,23.2578 Z M12.8584,23.1453 L12.8445,23.1473 L12.6598,23.2397 L12.6499,23.2499 L12.6472,23.2611 L12.6651,23.6906 L12.6699,23.7034 L12.6784,23.7105 L12.8793,23.8032 C12.8914,23.8069 12.9022,23.803 12.9078,23.7952 L12.9118,23.7812 L12.8777,23.1665 C12.8753,23.1546 12.8674,23.147 12.8584,23.1453 Z M12.143,23.1473 C12.1332,23.1424 12.1222,23.1453 12.1156,23.1526 L12.1099,23.1665 L12.0758,23.7812 C12.0751,23.7927 12.0828,23.8019 12.0926,23.8046 L12.1083,23.8032 L12.3092,23.7105 L12.3186,23.7024 L12.3225,23.6906 L12.3404,23.2611 L12.3372,23.2485 L12.3278,23.2397 L12.143,23.1473 Z" id="MingCute" fill-rule="nonzero"></path>
                <path d="M15.1501,4.64895 C16.3823,4.12869 17.9511,3.86988 20.0624,4.00185 C20.3505,4.01986 20.6168,4.1615 20.7928,4.39035 C20.9435714,4.58651571 21.0154367,4.83034102 20.9972496,5.07426813 L20.9806,5.19602 L19.3021,13.5882 C19.0949471,14.6244353 18.3685304,15.4460381 17.4264027,15.8044804 L17.2473,15.8662 L17.7808,17.9999 L21,17.9999 C21.5523,17.9999 22,18.4476 22,18.9999 C22,19.51275 21.613973,19.9354092 21.1166239,19.9931725 L21,19.9999 L6.65685,19.9999 C5.41917533,19.9999 4.22881071,19.5409987 3.31322764,18.717427 L3.12132,18.5354 L2.29289,17.707 C1.90237,17.3165 1.90237,16.6833 2.29289,16.2928 C2.65337923,15.9322462 3.22060645,15.9045112 3.61290152,16.2095953 L3.70711,16.2928 L4.53553,17.1212 C5.05125583,17.6369167 5.73541535,17.9455049 6.4587136,17.9933549 L6.65685,17.9999 L7.21922,17.9999 L7.7341,15.9404 C6.39924,15.7368 4.97324,15.0105 4.11221,13.7521 C3.00983,12.1409 3.00626,9.9377 4.66793,7.44517 C4.84795,7.17514 5.14782,7.00926 5.47223,7.00025 C5.79665,6.99124 6.10526,7.14023 6.29998,7.39986 C6.89863867,8.19805133 7.35471391,8.57395298 7.6948171,8.76183999 L7.84365,8.83606 L7.84365,8.83606 C8.1912,8.99053 8.49438,8.9999 9,8.9999 C9.88067,8.9999 10.4087,8.74484 10.8568,8.37612 C11.15985,8.126795 11.4261,7.8379775 11.6821125,7.53907 L12.1883579,6.93651352 C12.2730806,6.83674917 12.3586333,6.73804167 12.446,6.64148 C13.0922,5.92728 13.9102,5.17247 15.1501,4.64895 Z M15.2192,15.9999 L9.78078,15.9999 L9.28078,17.9999 L15.7192,17.9999 L15.2192,15.9999 Z" id="形状" fill="#09244B"></path>
            </g>
        </g>
    </g>
</svg>

<svg xmlns="http://www.w3.org/2000/svg" width="24" height="24"><g fill="none" fill-rule="evenodd"><path d="M24 0v24H0V0h24ZM12.594 23.258l-.012.002-.071.035-.02.004-.014-.004-.071-.036c-.01-.003-.019 0-.024.006l-.004.01-.017.428.005.02.01.013.104.074.015.004.012-.004.104-.074.012-.016.004-.017-.017-.427c-.002-.01-.009-.017-.016-.018Zm.264-.113-.014.002-.184.093-.01.01-.003.011.018.43.005.012.008.008.201.092c.012.004.023 0 .029-.008l.004-.014-.034-.614c-.003-.012-.01-.02-.02-.022Zm-.715.002a.023.023 0 0 0-.027.006l-.006.014-.034.614c0 .012.007.02.017.024l.015-.002.201-.093.01-.008.003-.011.018-.43-.003-.012-.01-.01-.184-.092Z"/><path fill="#09244B" d="M15.15 4.649c1.232-.52 2.801-.78 4.912-.647a1 1 0 0 1 .935 1.072l-.016.122-1.679 8.392a3 3 0 0 1-1.876 2.216l-.179.062.534 2.134H21a1 1 0 0 1 .117 1.993L21 20H6.657a5 5 0 0 1-3.344-1.283l-.192-.182-.828-.828a1 1 0 0 1 1.32-1.497l.094.083.829.828a3 3 0 0 0 1.923.872l.198.007h.562l.515-2.06c-1.335-.203-2.76-.93-3.622-2.188-1.102-1.611-1.106-3.814.556-6.307A1 1 0 0 1 6.3 7.4c.599.798 1.055 1.174 1.395 1.362l.149.074C8.19 8.991 8.494 9 9 9c.88 0 1.409-.255 1.857-.624.303-.25.57-.538.825-.837l.506-.602c.085-.1.17-.199.258-.296.646-.714 1.464-1.469 2.704-1.992Zm.07 11.35H9.78l-.5 2h6.44l-.5-2Z"/></g></svg>
